X:1
T:Ad?le
R:Schottische
Z:Dave Holland <dave@biff.org.uk>
M:2/4
L:1/8
K:G
B>A GA|B2 d2|e>d ef|gf ed|B/c/B/A/ GA|B2 d2|
eg fa|dg2d::e2 cg-|g2 ge|de/f/ gd|Bc de|
c2 eA-|AB cd|1Bc/B/ AB/A/|GB cd:|2ed ef|g2 g2|]
<end>
<start>
